packages/core/src/svgs/vra.svg

<svg width="24" height="24" viewBox="0 0 24 24" fill="none" xmlns="http://www.w3.org/2000/svg">
<g clip-path="url(#clip0_31_20524)">
<path d="M0 0H24V24H0V0Z" fill="url(#paint0_linear_31_20524)"/>
<path d="M18.7568 9.42878C18.8292 9.42878 18.8759 9.51492 18.8498 9.5835L18.5987 10.2294C18.5904 10.2473 18.5771 10.2623 18.5603 10.2727C18.5435 10.2831 18.5241 10.2883 18.5044 10.2876H17.6061C17.5692 10.2876 17.5332 10.3142 17.5178 10.3506L17.3712 10.6292C17.3567 10.6609 17.3961 10.7141 17.4312 10.7145H18.2245C18.2969 10.7145 18.3437 10.8028 18.3179 10.8658L18.0557 11.5009C18.0381 11.5352 18.0008 11.5704 17.9614 11.5708H17.0635C17.0241 11.5691 16.9701 11.5794 16.9542 11.6149L14.1865 17.9471C14.1806 17.9629 14.17 17.9766 14.156 17.9861C14.142 17.9956 14.1254 18.0005 14.1085 18.0002H9.95694C9.91751 18.0015 9.87937 17.9711 9.86351 17.9351L7.52137 12.1596C7.49137 12.0996 7.5428 12.0002 7.60965 12.0002H11.3777C11.4141 12.0002 11.4505 12.0379 11.4664 12.0748L11.9999 13.2859L14.5049 8.20778C14.5225 8.17349 14.5598 8.14349 14.5988 8.14307H18.3612C18.4281 8.14307 18.4787 8.23221 18.4495 8.29221L17.9155 9.36707C17.9001 9.39878 17.9267 9.42878 17.9618 9.42878H18.7568ZM12.5481 10.2259C12.5403 10.2437 12.5275 10.2588 12.5113 10.2694C12.4951 10.2801 12.4762 10.2858 12.4568 10.2859H5.62837C5.60901 10.2857 5.59011 10.2799 5.57393 10.2693C5.55775 10.2587 5.54496 10.2436 5.53708 10.2259L5.15308 9.59292C5.12608 9.53164 5.17751 9.42964 5.24437 9.42878H6.03894C6.07537 9.42878 6.09894 9.41335 6.08437 9.3795L5.62365 8.28535C5.59623 8.22407 5.64765 8.14392 5.71494 8.14307H9.47737C9.5168 8.14307 9.55237 8.16664 9.56823 8.20221L10.0701 9.3915C10.0868 9.4275 10.1219 9.42878 10.1609 9.42878H12.7907C12.8618 9.42878 12.9102 9.52607 12.8807 9.59335L12.5481 10.2259ZM11.8229 11.5056C11.8075 11.5416 11.7707 11.5708 11.7317 11.5708H6.23994C6.20137 11.5708 6.16494 11.5412 6.14994 11.5056L5.75565 10.8658C5.72737 10.8049 5.7788 10.7141 5.84565 10.7136H12.0505C12.1234 10.7136 12.1714 10.7985 12.1418 10.8658L11.8229 11.5056Z" fill="white"/>
</g>
<defs>
<linearGradient id="paint0_linear_31_20524" x1="2.19771" y1="5.57186" x2="21.4616" y2="20.0456" gradientUnits="userSpaceOnUse">
<stop stop-color="#F82B1E"/>
<stop offset="1" stop-color="#531685"/>
</linearGradient>
<clipPath id="clip0_31_20524">
<rect width="24" height="24" fill="white"/>
</clipPath>
</defs>
</svg>

<svg xmlns="http://www.w3.org/2000/svg" width="24" height="24" fill="none" viewBox="0 0 24 24"><g clip-path="url(#a)"><path fill="url(#b)" d="M0 0h24v24H0z"/><path fill="#fff" d="M18.757 9.429c.072 0 .119.086.093.155l-.251.645a.1.1 0 0 1-.095.059h-.898a.1.1 0 0 0-.088.063l-.147.278c-.014.032.025.085.06.085h.793c.073 0 .12.089.094.152l-.262.635c-.018.034-.055.07-.095.07h-.897c-.04-.002-.094.008-.11.044l-2.767 6.332a.08.08 0 0 1-.079.053H9.958c-.04.002-.078-.029-.093-.065L7.52 12.16c-.03-.06.022-.16.089-.16h3.768c.036 0 .072.038.088.075l.534 1.21 2.505-5.077c.018-.035.055-.065.094-.065h3.762c.067 0 .118.09.088.15l-.534 1.074c-.015.032.012.062.047.062zm-6.209.797a.1.1 0 0 1-.091.06H5.628a.1.1 0 0 1-.09-.06l-.385-.633c-.027-.061.025-.163.091-.164h.795c.036 0 .06-.016.045-.05l-.46-1.094c-.028-.06.024-.141.09-.142h3.763a.1.1 0 0 1 .091.06l.502 1.189c.017.036.052.037.09.037h2.63c.072 0 .12.097.09.164zm-.725 1.28c-.016.036-.052.065-.091.065H6.24c-.039 0-.075-.03-.09-.065l-.394-.64c-.029-.061.023-.152.09-.152h6.204c.073 0 .121.085.092.152z"/></g><defs><linearGradient id="b" x1="2.198" x2="21.462" y1="5.572" y2="20.046" gradientUnits="userSpaceOnUse"><stop stop-color="#F82B1E"/><stop offset="1" stop-color="#531685"/></linearGradient><clipPath id="a"><path fill="#fff" d="M0 0h24v24H0z"/></clipPath></defs></svg>
